!!!!SEGMENT: Ric1002f-Requiem-Agnus.krn
!!!id: Ric1002f
!!!AGN: Mass; Agnus
!!!SCT: Elzinga (1979)
!!!voices: 6
!!!COM: Jean Richafort
!!!OTL: Agnus
!!!OPR: Requiem
**kern	**kern	**kern	**kern	**kern	**kern
*part6	*part5	*part4	*part3	*part2	*part1
*staff6	*staff5	*staff4	*staff3	*staff2	*staff1
*I"Bassus	*I"Tenor III	*I"Tenor II	*I"Tenor I	*I"Altus	*I"Superius
*I'B	*I'T. III	*I'T. II	*I'T. I	*I'A	*I'S
*clefF4	*clefGv2	*clefGv2	*clefGv2	*clefGv2	*clefG2
*k[]	*k[]	*k[]	*k[]	*k[]	*k[]
*C:	*C:	*C:	*C:	*C:	*C:
*M2/1	*M2/1	*M2/1	*M2/1	*M2/1	*M2/1
*met(C|)	*met(C|)	*met(C|)	*met(C|)	*met(C|)	*met(C|)
!!section: Agnus Dei I
!!!OMD: Agnus Dei I
=1	=1	=1	=1	=1	=1
!	!LO:TX:a:t=Canon&colon; tenor III/tenor II at the fifth	!	!	!	!
0A	0r	0r	0c	0e	0a
=2	=2	=2	=2	=2	=2
1A	0r	0r	1c	1e	1a
1A	.	.	1c	1e	1a
=3	=3	=3	=3	=3	=3
1F	0r	0r	1c	1f	1a
1F	.	.	1c	[1f	1a
=4	=4	=4	=4	=4	=4
0B-i	0r	0r	1d	2f]	1f
.	.	.	.	2e	.
.	.	.	1d	[1d	1g
=5	=5	=5	=5	=5	=5
0A	0r	0r	1e	2d]	[0a
.	.	.	.	4c#i	.
.	.	.	.	4B	.
.	.	.	[1A	1c#i	.
=6	=6	=6	=6	=6	=6
0D	0F	0r	1A]	1.d	0a_
.	.	.	1A	.	.
.	.	.	.	4c	.
.	.	.	.	4B	.
=7	=7	=7	=7	=7	=7
1r	1F	0r	1c	2.A	0a]
.	.	.	.	4B	.
[1F	1F	.	2A	2c	.
.	.	.	[2c	2A	.
=8	=8	=8	=8	=8	=8
1F]	0G	0r	2c]	2.c	1r
.	.	.	4B	.	.
.	.	.	4A	4d	.
1E	.	.	2G	1e	1g
.	.	.	[2c	.	.
=9	=9	=9	=9	=9	=9
0F	0F	0c	4c]	2r	1a
.	.	.	4B	.	.
.	.	.	4A	1A	.
.	.	.	4G	.	.
.	.	.	1F	.	[1cc
.	.	.	.	2A	.
=10	=10	=10	=10	=10	=10
0C	[0G	1c	0E	2c	2cc]
.	.	.	.	2d	4b
.	.	.	.	.	4a
.	.	1c	.	2.e	2.g
.	.	.	.	4f	4a
=11	=11	=11	=11	=11	=11
0r	0G]	0d	0r	0g	0b
=12	=12	=12	=12	=12	=12
1.F	[0Al	0c	0r	1r	0a
.	.	.	.	[1f	.
2E	.	.	.	.	.
=13	=13	=13	=13	=13	=13
1D	0A_	[0d	1.F	2f]	[0a
.	.	.	.	2d	.
1D	.	.	.	[1f	.
.	.	.	2D	.	.
=14	=14	=14	=14	=14	=14
1D	0A_	0d]	2.F	2f]	1a]
.	.	.	.	2e	.
.	.	.	4F	.	.
1D	.	.	2F	2d	1a
.	.	.	2F	2d	.
=	=	=	=	=	=
00AA	00A]	00e	00E	00c	00a
=||	=||	=||	=||	=||	=||
*M2/1	*M2/1	*M2/1	*M2/1	*M2/1	*M2/1
*met(C|)	*met(C|)	*met(C|)	*met(C|)	*met(C|)	*met(C|)
!	!LO:TX:a:t=Canon&colon; tenor III/tenor II at the fifth	!	!	!	!
!!section: Agnus Dei II
!!!OMD: Agnus Dei II
0AA	0r	0r	0E	0c	0a
=15	=15	=15	=15	=15	=15
1D	1r	0r	1F	1d	1a
1AA	[1A	.	1E	1c	1a
=16	=16	=16	=16	=16	=16
1D	1A]	0r	1F	1d	1a
1C	1A	.	1E	1e	2a
.	.	.	.	.	2g
=17	=17	=17	=17	=17	=17
1D	1B	0r	1F	1d	1f
1E	1G	.	1G	1B	[1e
=18	=18	=18	=18	=18	=18
[0AA	[0A	1r	0E	2.c	2e]
.	.	.	.	.	4d
.	.	.	.	4B	4c
.	.	[1e	.	2A	1B
.	.	.	.	4G	.
.	.	.	.	4F	.
=19	=19	=19	=19	=19	=19
0AA]	0A]	1e]	2.A	0E	1c
.	.	.	4B	.	.
.	.	1e	1c	.	1cc
=20	=20	=20	=20	=20	=20
1D	0F	1f	1d	0r	1b
1F	.	1d	1A	.	[1a
=21	=21	=21	=21	=21	=21
0E	0r	[0e	0B	1r	2a]
.	.	.	.	.	4g#i
.	.	.	.	.	4f#i
.	.	.	.	1e	1g#i
=22	=22	=22	=22	=22	=22
1r	0r	0e]	0A	1.c	[0a
[1A	.	.	.	.	.
.	.	.	.	2d	.
=23	=23	=23	=23	=23	=23
2A]	1r	0c	1r	1e	0a_
2G	.	.	.	.	.
2F	[1A	.	1D	[1f	.
2E	.	.	.	.	.
=24	=24	=24	=24	=24	=24
2.D	1A]	0r	1F	2f]	0a]
.	.	.	.	4e	.
8CL	.	.	.	4d	.
8BBJ	.	.	.	.	.
2AA	1A	.	1F	2c	.
2AA	.	.	.	2A	.
=25	=25	=25	=25	=25	=25
0GG	2B	0r	1G	1d	0r
.	2G	.	.	.	.
.	1B	.	2r	1d	.
.	.	.	2G	.	.
=26	=26	=26	=26	=26	=26
0r	2.A	1r	2A	1c	1r
.	.	.	1c	.	.
.	8GL	.	.	.	.
.	8FJ	.	.	.	.
.	4E	[1e	.	1r	1g
.	4D	.	.	.	.
.	2E	.	2B	.	.
=27	=27	=27	=27	=27	=27
0r	0A	1e]	2.c	0r	1a
.	.	.	4B	.	.
.	.	1e	1A	.	[1cc
=28	=28	=28	=28	=28	=28
2r	0r	2f	1r	2r	2cc]
2D	.	2d	.	2d	2b
2D	.	1f	1D	2d	1a
2D	.	.	.	2d	.
=29	=29	=29	=29	=29	=29
0E	0r	2.e	1.G	0B	1g
.	.	8dL	.	.	.
.	.	8cJ	.	.	.
.	.	4B	.	.	[1g
.	.	4A	.	.	.
.	.	2B	2E	.	.
=30	=30	=30	=30	=30	=30
[0C	[0E	[0el	[0El	1.c	2g]
.	.	.	.	.	2f
.	.	.	.	.	2e
.	.	.	.	4B	2d
.	.	.	.	4A	.
=31	=31	=31	=31	=31	=31
1C]	0E]	0e_	0E_	1G	[0el
1AA	.	.	.	1A	.
=	=	=	=	=	=
00AA	00E	00e]	00E]	00A	00e]
=||	=||	=||	=||	=||	=||
*M2/1	*M2/1	*M2/1	*M2/1	*M2/1	*M2/1
*met(C|)	*met(C|)	*met(C|)	*met(C|)	*met(C|)	*met(C|)
!!section: Agnus Dei III
!!!OMD: Agnus Dei III
!	!LO:TX:a:t=Canon&colon; tenor III/tenor II at the fifth	!	!	!	!
0D	0F	0r	0A	0d	0a
=32	=32	=32	=32	=32	=32
1D	1F	0r	1d	0f	1a
1D	1D	.	1d	.	1a
=33	=33	=33	=33	=33	=33
1AA	1E	0r	1c	0e	1a
2.AA	2.C	.	2A	.	1a
.	.	.	[2c	.	.
4BB	4D	.	.	.	.
=34	=34	=34	=34	=34	=34
2C	2E	0c	4c]	1r	2g
.	.	.	4B	.	.
2FF	1F	.	2A	.	2f
1C	.	.	1G	1c	1g
.	2E	.	.	.	.
=35	=35	=35	=35	=35	=35
2FF	0F	1c	0F	2.A	0a
2F	.	.	.	.	.
.	.	.	.	4B	.
2F	.	1A	.	2c	.
2F	.	.	.	2d	.
=36	=36	=36	=36	=36	=36
2E	0r	1B	0r	2e	0r
2D	.	.	.	2f	.
[1E	.	2.G	.	[1g	.
.	.	4A	.	.	.
=37	=37	=37	=37	=37	=37
2E]	0r	2B	1r	2g]	0r
4D	.	1c	.	4f	.
4C	.	.	.	4e	.
1D	.	.	2r	1f	.
.	.	2B	2F	.	.
=38	=38	=38	=38	=38	=38
0C	1r	0c	2G	0e	1r
.	.	.	2C	.	.
.	1C	.	[1c	.	1g
=39	=39	=39	=39	=39	=39
0r	1F	0r	1c]	1.f	1a
.	1F	.	2.A	.	[1cc
.	.	.	.	2f	.
.	.	.	4B	.	.
=40	=40	=40	=40	=40	=40
0C	1G	0r	0c	1e	2cc]
.	.	.	.	.	2b
.	1A	.	.	1c	[1a
=41	=41	=41	=41	=41	=41
1D	0B-i	1r	0r	1f	1a]
1E	.	1G	.	2.e	1g
.	.	.	.	4d	.
=42	=42	=42	=42	=42	=42
0F	0A	1c	1A	2c	0a
.	.	.	.	2B	.
.	.	1c	2.c	1A	.
.	.	.	4B	.	.
=43	=43	=43	=43	=43	=43
1F	1r	1d	4A	0r	1r
.	.	.	4G	.	.
.	.	.	2.d	.	.
1E	1C	1e	.	.	1g
.	.	.	4c	.	.
.	.	.	4c	.	.
.	.	.	4B	.	.
=44	=44	=44	=44	=44	=44
0D	1F	0f	1d	1r	1a
.	1F	.	1D	1d	1b
=45	=45	=45	=45	=45	=45
0C	1G	0e	1r	1e	1.cc
.	1A	.	2r	1c	.
.	.	.	2C	.	8ccL
.	.	.	.	.	8b
.	.	.	.	.	8a
.	.	.	.	.	8gJ
=46	=46	=46	=46	=46	=46
2r	0B-i	1r	2D	1f	4f
.	.	.	.	.	4e
2F	.	.	2D	.	1a
2G	.	1G	1E	2.e	.
2E	.	.	.	.	2g
.	.	.	.	4d	.
=47	=47	=47	=47	=47	=47
1.F	[0Al	1c	1r	2c	0a
.	.	.	.	2B	.
.	.	1c	[1A	2A	.
2E	.	.	.	2G	.
=48	=48	=48	=48	=48	=48
1D	0A_	1d	2A]	2F	1a
.	.	.	2B	1f	.
1C	.	1e	1c	.	1a
.	.	.	.	2e	.
=49	=49	=49	=49	=49	=49
0D	0A_	0f	1.F	0d	0a
.	.	.	2G	.	.
=50	=50	=50	=50	=50	=50
[0AAl	0A_	[0el	1A	[0cl	[0al
.	.	.	1E	.	.
=51	=51	=51	=51	=51	=51
00AA]	00A]	00e]	00Al	00c]	00a]
==	==	==	==	==	==
*-	*-	*-	*-	*-	*-
!!!system-decoration: [*]
!!!RDF**kern: i = editorial accidental
!!!RDF**kern: l = terminal long
!!!ENC: Benjamin Ory
!!!END: 2021/4/8
!!!EED: Benjamin Ory
!!!EEV: 2021/05/02
!!!YEC: Copyright 2021 Benjamin Ory, All Rights Reserved
!!!ONB: Translated from MusicXML on 2021/05/02
